assets/icons/24px/stroke/circle-square-24px.svg

<svg width="24" height="24" viewBox="0 0 24 24" fill="none" xmlns="http://www.w3.org/2000/svg">
<path fill-rule="evenodd" clip-rule="evenodd" d="M12 4C7.58172 4 4 7.58172 4 12C4 16.4183 7.58172 20 12 20C16.4183 20 20 16.4183 20 12C20 7.58172 16.4183 4 12 4ZM2 12C2 6.47715 6.47715 2 12 2C17.5228 2 22 6.47715 22 12C22 17.5228 17.5228 22 12 22C6.47715 22 2 17.5228 2 12Z" fill="white"/>
<path fill-rule="evenodd" clip-rule="evenodd" d="M11.9514 7.5C11.9676 7.5 11.9838 7.5 12 7.5C12.0162 7.5 12.0324 7.5 12.0486 7.5C12.7093 7.49997 13.2791 7.49995 13.7443 7.54727C14.2375 7.59745 14.7228 7.70898 15.1667 8.00559C15.4943 8.22447 15.7755 8.50572 15.9944 8.83329C16.291 9.27721 16.4026 9.76248 16.4527 10.2557C16.5001 10.7209 16.5 11.2907 16.5 11.9515V12.0485C16.5 12.7093 16.5001 13.2791 16.4527 13.7443C16.4026 14.2375 16.291 14.7228 15.9944 15.1667C15.7755 15.4943 15.4943 15.7755 15.1667 15.9944C14.7228 16.291 14.2375 16.4026 13.7443 16.4527C13.2791 16.5001 12.7093 16.5 12.0486 16.5H11.9514C11.2907 16.5 10.7209 16.5001 10.2557 16.4527C9.76248 16.4026 9.27721 16.291 8.83329 15.9944C8.50572 15.7755 8.22447 15.4943 8.00559 15.1667C7.70898 14.7228 7.59745 14.2375 7.54727 13.7443C7.49995 13.2791 7.49997 12.7093 7.5 12.0486C7.5 12.0324 7.5 12.0162 7.5 12C7.5 11.9838 7.5 11.9676 7.5 11.9514C7.49997 11.2907 7.49995 10.7209 7.54727 10.2557C7.59745 9.76248 7.70898 9.27721 8.00559 8.83329C8.22447 8.50572 8.50572 8.22447 8.83329 8.00559C9.27721 7.70898 9.76248 7.59745 10.2557 7.54727C10.7209 7.49995 11.2907 7.49997 11.9514 7.5ZM10.4581 9.537C10.123 9.57109 10.005 9.62809 9.94443 9.66853C9.83524 9.74149 9.74149 9.83524 9.66853 9.94443C9.62809 10.005 9.57109 10.123 9.537 10.4581C9.50121 10.8099 9.5 11.277 9.5 12C9.5 12.723 9.50121 13.1901 9.537 13.5419C9.57109 13.877 9.62809 13.995 9.66853 14.0556C9.74149 14.1648 9.83524 14.2585 9.94443 14.3315C10.005 14.3719 10.123 14.4289 10.4581 14.463C10.8099 14.4988 11.277 14.5 12 14.5C12.723 14.5 13.1901 14.4988 13.5419 14.463C13.877 14.4289 13.995 14.3719 14.0556 14.3315C14.1648 14.2585 14.2585 14.1648 14.3315 14.0556C14.3719 13.995 14.4289 13.877 14.463 13.5419C14.4988 13.1901 14.5 12.723 14.5 12C14.5 11.277 14.4988 10.8099 14.463 10.4581C14.4289 10.123 14.3719 10.005 14.3315 9.94443C14.2585 9.83524 14.1648 9.74149 14.0556 9.66853C13.995 9.62809 13.877 9.57109 13.5419 9.537C13.1901 9.50121 12.723 9.5 12 9.5C11.277 9.5 10.8099 9.50121 10.4581 9.537Z" fill="white"/>
</svg>

<svg width="24" height="24" fill="none" xmlns="http://www.w3.org/2000/svg"><path fill-rule="evenodd" clip-rule="evenodd" d="M12 4a8 8 0 1 0 0 16 8 8 0 0 0 0-16zM2 12C2 6.477 6.477 2 12 2s10 4.477 10 10-4.477 10-10 10S2 17.523 2 12z" fill="#fff"/><path fill-rule="evenodd" clip-rule="evenodd" d="M11.951 7.5h.098c.66 0 1.23 0 1.695.047.494.05.979.162 1.423.459a3 3 0 0 1 .827.827c.297.444.409.93.459 1.423.047.465.047 1.035.047 1.695v.098c0 .66 0 1.23-.047 1.695-.05.494-.162.979-.459 1.423a3 3 0 0 1-.827.827c-.444.297-.93.409-1.423.459-.465.047-1.035.047-1.695.047h-.098c-.66 0-1.23 0-1.695-.047-.494-.05-.979-.162-1.423-.459a3 3 0 0 1-.827-.827c-.297-.444-.409-.93-.459-1.423C7.5 13.28 7.5 12.71 7.5 12.05V12v-.049c0-.66 0-1.23.047-1.695.05-.494.162-.979.459-1.423a3 3 0 0 1 .827-.827c.444-.297.93-.409 1.423-.459C10.72 7.5 11.29 7.5 11.95 7.5zm-1.493 2.037c-.335.034-.453.091-.514.132a1 1 0 0 0-.275.275c-.04.061-.098.179-.132.514-.036.352-.037.819-.037 1.542 0 .723.001 1.19.037 1.542.034.335.091.453.132.514a1 1 0 0 0 .275.276c.061.04.179.097.514.131.352.036.819.037 1.542.037.723 0 1.19-.001 1.542-.037.335-.034.453-.091.514-.131a1 1 0 0 0 .276-.276c.04-.061.097-.179.131-.514.036-.352.037-.819.037-1.542 0-.723-.001-1.19-.037-1.542-.034-.335-.091-.453-.131-.514a1 1 0 0 0-.276-.275c-.061-.04-.179-.098-.514-.132C13.19 9.501 12.723 9.5 12 9.5c-.723 0-1.19.001-1.542.037z" fill="#fff"/></svg>
